X: 1
T: Road To Corrandulla, The
M: 4/4
L: 1/8
R: reel
K: Gmaj
&quot;G&quot;GABd B2AB | &quot;Am7&quot;dedB A2GE | &quot;G/B&quot;GABd B2AG | &quot;C&quot;AGED AG&quot;D&quot;ED |
&quot;G&quot;GABd B2AB | &quot;Am7&quot;dedB degd | &quot;C&quot;e3g e2de | &quot;D&quot;gedB A2GE :|
|:&quot;G&quot;DEGB A2G2 | B/A/G AB &quot;C&quot;e2d2 | &quot;G&quot;DEGB A2GA | BE&quot;C&quot;~E2 GEDB, |
&quot;G&quot;DEGB A2GA | B/A/G AB e2dB | dega &quot;C&quot;e2dB |1 ~G3B &quot;D&quot;A2GE :|2 ~G3B &quot;D&quot;A2 B/c/d ||
|:&quot;Am&quot;e2dB A2e2 | deg2 e2dB | &quot;G&quot;G2dG eGdG | Bdgd edBd |
&quot;Am&quot;e2dB A2e2 | deg2 e2dB | &quot;G&quot;G2dG eGdG |1 BedB A2 B/c/d :|2 BedB A4 ||
